X: 15
T: Immaculate Mary
M: 3/4 % time signature
L: 1/4 % default length
%%staves (S1V1 S1V2) | (S2V1 S2V2) 
V: S1V1 clef=treble 
V: S1V2 
%%MIDI beat 127 125 110 1
V: S2V1 clef=bass 
%%MIDI beat 127 125 110 1
V: S2V2 
%%MIDI beat 127 125 110 1
K: G % key signature
%
%%MIDI program 1 0 % Piano 1
%%MIDI program 2 0 % Piano 1
%%MIDI program 3 0 % Piano 1
%%MIDI program 4 0 % Piano 1
%
% 1
[V: S1V1] D | G G B | G G B | A A B/A/ | G2 |]
w: 1.~Im-mac-u-late Ma-ry! Our hearts are on - fire,
w: 2.~We pray for God’s glor-y, May his king-dom - come;
w: 3.~We pray for our Mo-ther, The Church u-pon - earth,
[V: S1V2]  D | B, D D | E D D | E E D/C/ | B,2 |]
[V: S2V1]  F, | G, G, G, | G, G, G, | G, E, F, | G,2 |]
[V: S2V2]  D, | G,, B,, G,, | C, B,, G,, | C, C, D, | G,,2 |]
%
[V: S1V1]  D | G G B | G G B | A A B/A/ | G3|
w: Sal-va-tion so won-drous Fills all our de- * sire!
w: We pray for our Bi-shop, Our Fa-ther at - home.
w: And bless, sweet-est Lad-y, The land of our - birth.
[V: S1V2]  D | E E F | E D E | E E F | G3|
[V: S2V1]  A, | B, C B, | B, G, G, | A, C D/C/ | B,3 |]
[V: S2V2]  F, | E, C, D, | E, B,, E, | C, A,, D, | G,3 |]
%
[V: S1V1]  c2 c | B2 B | A A A | d2 G |
w: A-ve, A-ve, Av-e Ma-ri-a!
[V: S1V2]  G2 G | G2 G | D F D | D2 E |
[V: S2V1] (C E) C | D2 D | D A, F, | G,2 B, |]
[V: S2V2]  (E, C,) E, | (G, A,) G, | F, D, C, | B,,2 E, |]
%
[V: S1V1]  c2 c | B B B | (A2 B/A/) | G3 |] !sintro! c3 | B3 !eintro!|]
w: A-ve, A-ve, Ma-ri- * - a! A-men.
[V: S1V2]  E2 A | F F G/F/ | (E G F) | G3 |] G3 | G3 |]
[V: S2V1]  A,2 E | ^D B, B, | (C2 D/C/) | B,3 |] E3 | D3 |]
[V: S2V2]  (A,, C,) A,, | B,, ^D, E, | (A,,2 D,) | G,,3 |] C,3 | G,,3 |]
%
W:4. We pray for all sinners, 
W:And souls that now stray
W:From Jesus and Mary
W:In heresy's way.
W:Ave, Ave, Ave Maria!
W:Ave, Ave, Maria!
W:
W:5. We pray for our fellows
W:Who are bound in Rome
W:Cut off from thy dear Son,
W:Please bring them back home!
W:Ave, Ave, Ave Maria!
W:Ave, Ave, Maria!
W:
W:8. There is no need, Mary,
W:Nor ever hath been,
W:Which thou canst not succour,
W:Immaculate Queen.
W:Ave, Ave, Ave Maria!
W:Ave, Ave, Maria!
W:
W:9. In grief and temptation,
W:In joy, or in pain,
W:We’ll seek thee, our Mother,
W:Nor seek thee in vain.
W:Ave, Ave, Ave Maria!
W:Ave, Ave, Maria!
W:
W:10. O bless us, dear Lady,
W:With blessings from heav'n,
W:And to our petitions
W:Let answer be giv'n.
W:Ave, Ave, Ave Maria!
W:Ave, Ave, Maria!
W:
W:6. O Mother of the Light,
W:Shine upon all men,
W:Bound up in the darkness,
W:Please make them all kin.
W:Ave, Ave, Ave Maria!
W:Ave, Ave, Maria!
W:
W:7. For poor, sick, afflicted,
W:Thy mercy we crave;
W:And comfort the dying,
W:Thou light of the grave!
W:Ave, Ave, Ave Maria!
W:Ave, Ave, Maria!
W:
W:11. In death's solemn moment,
W:Our Mother, be nigh;
W:As children of Mary
W:O teach us to die!
W:Ave, Ave, Ave Maria!
W:Ave, Ave, Maria!
W:
W:12. And crown thy sweet mercy
W:With this special grace,
W:To behold in heaven
W:God’s ravishing Face.
W:Ave, Ave, Ave Maria!
W:Ave, Ave, Maria!
W:
W:13. To God be all glory
W:And worship for aye,
W:To God's Virgin Mother
W:An endless Ave.
W:Ave, Ave, Ave Maria!
W:Ave, Ave, Maria!



